X:1
T:Let Us Stand for Right
T:Let Us Stand for Right
T:B. A. Lamberth
T:Juanita Sanchez, 1919
T:Public Domain Courtesy of the Cyber Hymnal™
T:Public Domain Courtesy of the Cyber Hymnal™
C:B. A. Lamberth
Z:Public Domain
Z:Courtesy of the Cyber Hymnal™
%%score ( 1 2 ) ( 3 4 )
L:1/8
Q:1/4=80
M:4/4
K:F
V:1 treble 
V:2 treble 
V:3 bass 
V:4 bass 
V:1
 F/G/A c | (z [Fc]) A/A/c A x3 | z [CF] F/F/A c x3 | z [Fc] [Fc]/[Fc]/[Fc] [FA] x3 | %4
w: 1.~Let us stand for|* right with a loy-|* al heart, What- so-|* e’er be- fall, do-|
w: 2.~Let us stand for|* right in the Sav-|* ior’s name, With a|* strength that we thro’|
w: 3.~Let us stand for|* right till we ban-|* ish wrong, If we|* faith- ful prove, it|
 G4- [EG]c/de x/ | (f[Fc]/[Fc]/ [Fc][Fc] [Fc])f/f/ ad | (d[Fd]/[Fd]/[Fd][Fd] [Fd])F/F/ Ac | %7
w: * ing * well our|part; * * * * * If you heed- less|grow, * * * * * ’mid the bat- tle’s|
w: * His * grace shall|claim; * * * * * Tho’ the temp- ter|pleads, * * * * * we will nev- er|
w: * will * not be|long; * * * * * Then the song of|peace * * * * * we shall glad- ly|
 (z [Fc]) [Fd]/[Fc]/F [EG] x4 | F4- [CF] ||"^Refrain" c/c/A c | (z [Fd]) f/f/d A x3 | %11
w: * din, You’ll o’er- tak-|en *|* be by the|* hosts of sin. *|
w: * yield, For our Lord|is *|* near, from the|* foe to shield. Let|
w: * sing, And the vic-|tory *|* cry far and|* wide shall ring. *|
 z [Fc] F/F/A G x3 | z d/d/ dd [Fd][Fc]/[Fc]/ [Fc][FA] | GG/G/AA [EG]c/de x/ | %14
w: |||
w: * us stand for right|* * * * * and the wrong de-|* * * * * * fy, We shall|
w: |||
 (f [Fc]/[Fc]/[Fc][Fc] [Fc])f/f/ ad | (d [Fd]/[Fd]/[Fd][Fd] [Fd])F/F/ Ac | %16
w: ||
w: * * * * * * vic- tory gain in|the * * * * * by and by; Let|
w: ||
 (z [Fc]) [Fd]/[Fc]/F [EG] x4 | F4- [CF] |] %18
w: ||
w: * us stand for *|right *|
w: ||
V:2
 x3 | c4- F/F/F F x | F4- C/C/C D x | c4- F/ F/ F F x | (E E/ E/ E E c/) x7/2 | x8 | x8 | %7
 (c4- F/ F/ F F x F) | F E/ E/ D D x || x3 | d4- F/ F/ F F x | c4- F/ F/ E E x | F4- x4 | %13
 E4- c/ x7/2 | x8 | x8 | (c4 F/ F/ F F x F) | F E/ E/ D D x |] %18
V:3
 z3 | z ([F,A,]/[F,A,]/[F,A,][F,A,] [F,A,]) z3 | z ([F,A,]/[F,A,]/[F,A,][F,B,] [F,A,]) z3 | %3
 z ([F,A,]/[F,A,]/[F,A,][F,A,] [F,A,])[F,A,]/[F,A,]/ [A,C][F,C] | %4
 ([C,C][C,C][C,C]/[C,C]/[C,C] [C,C])C,/C,/ D,E, | (z A,/A,/A,A, [F,A,])F,/F,/ A,F, | %6
 z A,/A,/A,A, [D,A,] z3 | z ([F,A,]/[F,A,]/[F,A,][F,A,] [F,A,])[D,A,]/[F,A,]/ [C,A,][C,B,] x | %8
 (A,C/C/B,B, [F,A,]) || z3 | z ([B,,B,]/[B,,B,]/[B,,B,][B,,B,] [B,,B,]) z3 | %11
 z ([F,A,]/[F,A,]/[C,G,][C,G,] [F,A,]) z3 | %12
 z ([D,A,]/[D,A,]/[D,A,][D,A,] [D,A,])[F,A,]/[F,A,]/ [A,C][F,C] | %13
 ([C,C][C,C]/[C,C]/[C,C][C,C] [C,C])C,/C,/ D,E, | (z A,/A,/A,A, [F,A,])F,/F,/ A,F, | %15
 z A,/A,/A,A, [D,A,] z3 | z ([F,A,]/[F,A,]/[F,A,][F,A,] [F,A,])[D,A,]/[F,A,]/ [C,A,][C,B,] x | %17
 (A,C/C/B,B, [F,A,]) |] %18
V:4
 x3 | x8 | x8 | x8 | x8 | F,4- x4 | D,4- x4 | x9 | F,4- x || x3 | x8 | x8 | x8 | x8 | F,4- x4 | %15
 D,4- x4 | x9 | F,4- x |] %18

